X: 588
T: Nao wugeng
L: 1/8
M: 2/4
K: G
AA2B [I:setbarnb 1]| 
d2e d | 
B dA2 | 
dG2B | 
A4 | 
AA2B | 
d2e d | 
B dA2 | 
dG2B | 
A4 | 
G2A2 | 
Ad2B | 
A3G | 
d2B B | 
G3E | 
D4 | 
E2E G | 
A2z2 | 
d c A G | 
E2B A | 
G3A | 
E D B, A, | 
D3E | 
D4 |]

@@@ Tune index: 9462
